X: 35164
T: Ronnie Cooper's
R: reel
M: 4/4
K: Dmajor
dDDG FDFA|gfed B/c/d ed|BEEf gfed|cdec Agfe|
dDFA B>BBf|gfed Bcde|fAdf gfed|1 ceag fddc:|2 ceag fdda||
afdf adba|gece g>gge|fdAd fgaf|eAB/c/d afge|
eddc dAFA|BGGG EFGE|FDFA Gfed|1 cAGE EDDf:|2 cAGE EDDc||

